src/renderer/src/assets/icons/googleLogo.svg

<svg viewBox="0 0 488 512" xmlns="http://www.w3.org/2000/svg"><path d="m488 261.8c0 141.5-96.9 242.2-240 242.2-137.2 0-248-110.8-248-248s110.8-248 248-248c66.8 0 123 24.5 166.3 64.9l-67.5 64.9c-88.3-85.2-252.5-21.2-252.5 118.2 0 86.5 69.1 156.6 153.7 156.6 98.2 0 135-70.4 140.8-106.9h-140.8v-85.3h236.1c2.3 12.7 3.9 24.9 3.9 41.4z"/></svg>

<svg width="488" height="512" viewBox="0 0 488 512" fill="none" xmlns="http://www.w3.org/2000/svg">
<path d="M488 261.8C488 403.3 391.1 504 248 504C110.8 504 0 393.2 0 256C0 118.8 110.8 8 248 8C314.8 8 371 32.5 414.3 72.9L346.8 137.8C258.5 52.6 94.3 116.6 94.3 256C94.3 342.5 163.4 412.6 248 412.6C346.2 412.6 383 342.2 388.8 305.7H248V220.4H484.1C486.4 233.1 488 245.3 488 261.8Z" fill="white"/>
</svg>
